svgs/supertuxkart.svg

<svg xmlns="http://www.w3.org/2000/svg" viewBox="0 0 192 192"><path d="M96 16.5a79.529 79.529 0 0 0-56.215 23.285A79.529 79.529 0 0 0 16.5 96a79.529 79.529 0 0 0 23.285 56.215A79.529 79.529 0 0 0 96 175.5a79.529 79.529 0 0 0 56.215-23.285A79.529 79.529 0 0 0 175.5 96a79.529 79.529 0 0 0-23.285-56.215A79.529 79.529 0 0 0 96 16.5Z" fill="none" stroke="#000" stroke-width="12" stroke-linecap="round" stroke-linejoin="round"/><path d="M103.199 81.061a16.783 16.783 0 0 1 7.765 7.737l39.572-10.394a57.435 57.435 0 0 0-14.025-22.912 57.435 57.435 0 0 0-22.912-14.025Zm-22.138 7.74a16.783 16.783 0 0 1 7.737-7.765l-10.396-39.57a57.422 57.422 0 0 0-36.936 36.936Zm29.879 14.398a16.777 16.777 0 0 1-7.736 7.765l10.394 39.572a57.422 57.422 0 0 0 36.936-36.937Zm-22.144 7.764a16.777 16.777 0 0 1-7.736-7.765l-39.594 10.4a57.422 57.422 0 0 0 36.936 36.936Z" fill="none" stroke="#000" stroke-width="12" stroke-linecap="round" stroke-linejoin="round"/><path d="M96 79.36a16.641 16.641 0 0 0-9.78 30.102 16.641 16.641 0 0 0 19.56 0 16.643 16.643 0 0 0 6.045-18.604A16.643 16.643 0 0 0 96 79.36Z" fill="none" stroke="#000" stroke-width="12" stroke-linecap="round" stroke-linejoin="round"/></svg>

<svg
    xmlns="http://www.w3.org/2000/svg"
    viewBox="0 0 192 192"
    id="vector">
    <path
        id="path"
        d="M 96 16.5 C 74.923 16.5 54.688 24.882 39.785 39.785 C 24.882 54.688 16.5 74.923 16.5 96 C 16.5 117.077 24.882 137.312 39.785 152.215 C 54.688 167.118 74.923 175.5 96 175.5 C 117.077 175.5 137.312 167.118 152.215 152.215 C 167.118 137.312 175.5 117.077 175.5 96 C 175.5 74.923 167.118 54.688 152.215 39.785 C 137.312 24.882 117.077 16.5 96 16.5 Z"
        fill="none"
        stroke="#000000"
        stroke-width="12"
        stroke-linecap="round"
        stroke-linejoin="round"/>
    <path
        id="path_1"
        d="M 103.199 81.061 C 106.58 82.698 109.315 85.423 110.964 88.798 L 150.536 78.404 C 147.738 69.765 142.931 61.913 136.511 55.492 C 130.09 49.072 122.238 44.265 113.599 41.467 Z M 81.061 88.801 C 82.698 85.42 85.423 82.685 88.798 81.036 L 78.402 41.466 C 69.763 44.263 61.911 49.07 55.49 55.49 C 49.07 61.911 44.263 69.763 41.466 78.402 Z M 110.94 103.199 C 109.304 106.58 106.579 109.315 103.204 110.964 L 113.598 150.536 C 122.237 147.738 130.089 142.931 136.51 136.511 C 142.93 130.09 147.737 122.238 150.534 113.599 Z M 88.796 110.963 C 85.421 109.314 82.696 106.579 81.06 103.198 L 41.466 113.598 C 44.263 122.237 49.07 130.089 55.49 136.51 C 61.911 142.93 69.763 147.737 78.402 150.534 Z"
        fill="none"
        stroke="#000000"
        stroke-width="12"
        stroke-linecap="round"
        stroke-linejoin="round"/>
    <path
        id="path_2"
        d="M 96 79.36 C 92.487 79.36 89.062 80.473 86.22 82.538 C 83.377 84.603 81.261 87.517 80.175 90.858 C 79.089 94.2 79.089 97.8 80.175 101.142 C 81.261 104.483 83.377 107.397 86.22 109.462 C 89.062 111.527 92.487 112.64 96 112.64 C 99.513 112.64 102.938 111.527 105.78 109.462 C 108.623 107.397 110.739 104.483 111.825 101.142 C 112.911 97.8 112.911 94.2 111.825 90.858 C 110.739 87.517 108.623 84.603 105.78 82.538 C 102.938 80.473 99.513 79.36 96 79.36 Z"
        fill="none"
        stroke="#000000"
        stroke-width="12"
        stroke-linecap="round"
        stroke-linejoin="round"/>
</svg>
